X:1
T:Renaldine
M:4/4
L:1/4
K:Db
D/2-F/2| A A B B/2B/2| F E D D/2D/2| F F G B| A2 z| A| B B B3/2 A/2|\
 d d B A/2A/2| A A B G| A2 z| D/2E/2| F F F G/2G/2| A3/2 G/2 F D/2F/2|\
 A A B G| A2 z| A/2A/2| F A F D| D3/2 A,/2 A, D/2E/2| F E/2E/2 D3/2 D/2|\
 D2 z||
